X: 794
T: Pineywoods Gal
B: jims roots
M:C|
L:1/8
R: Reel
Q: 1/4=100
K:G
V:1 
|:"G"dega bgag|egdg egdd|gfga b2 ag|
"D"eaab a2 ef | "G"gfga bggd|egdg egdA|
BABd AGGE|[1 "D"DEGB "G"AG-[G2B2]:|[2 "D"DEGB "G"AGGA||
|:"Em"BGAG EGAG|EGBA Be3|BABd BAGA|DEGB "G"AG-[G2B2]|
"Em"BGAG EGA[GB]| EGAG Be2A|EDEG DEGA|"D"BGAF "G"G2 AB:|
% abcbook-tune_id 6298c279e7e3733c545b2a9b


% abcbook-boost 0
% abcbook-tablature 
% abcbook-transpose 
% abcbook-lastupdated 1654178426546
% abcbook-soundfonts 
% abcbook-repeats 1


